svgs/thin/arrow-up-from-bracket.svg

<svg xmlns="http://www.w3.org/2000/svg" viewBox="0 0 448 512"><!--! Font Awesome Pro 6.3.0 by @fontawesome - https://fontawesome.com License - https://fontawesome.com/license (Commercial License) Copyright 2023 Fonticons, Inc. --><path d="M432 392v80c0 13.23-10.77 24-24 24H40c-13.23 0-24-10.77-24-24v-80C16 387.6 12.42 384 8 384S0 387.6 0 392v80C0 494.1 17.94 512 40 512h368c22.06 0 40-17.94 40-40v-80c0-4.422-3.578-8-8-8S432 387.6 432 392zM218.3 2.344l-184 184C32.78 187.9 32 189.9 32 192s.7813 4.094 2.344 5.656c3.125 3.125 8.188 3.125 11.31 0L216 27.31V376C216 380.4 219.6 384 224 384s8-3.594 8-8V27.31l170.3 170.3c3.125 3.125 8.188 3.125 11.31 0C415.2 196.1 416 194.1 416 192s-.7813-4.094-2.344-5.656l-184-184C228.1 .7813 226 0 224 0S219.9 .7813 218.3 2.344z"/></svg>

<svg xmlns="http://www.w3.org/2000/svg" viewBox="0 0 448 512"><!-- Font Awesome Pro 6.0.0-alpha2 by @fontawesome - https://fontawesome.com License - https://fontawesome.com/license (Commercial License) --><path d="M432 392V472C432 485.234 421.234 496 408 496H40C26.766 496 16 485.234 16 472V392C16 387.578 12.422 384 8 384S0 387.578 0 392V472C0 494.062 17.938 512 40 512H408C430.062 512 448 494.062 448 472V392C448 387.578 444.422 384 440 384S432 387.578 432 392ZM218.344 2.344L34.344 186.344C32.781 187.906 32 189.938 32 192S32.781 196.094 34.344 197.656C37.469 200.781 42.531 200.781 45.656 197.656L216 27.312V376C216 380.406 219.578 384 224 384S232 380.406 232 376V27.312L402.344 197.656C405.469 200.781 410.531 200.781 413.656 197.656C415.219 196.094 416 194.062 416 192S415.219 187.906 413.656 186.344L229.656 2.344C228.094 0.781 226.047 0 224 0S219.906 0.781 218.344 2.344Z"/></svg>
